docs/img/ico-yt.svg

<svg width="14" height="11" viewBox="0 0 14 11" fill="none" xmlns="http://www.w3.org/2000/svg">
<path d="M7.03143 11C5.08777 10.9903 3.1535 10.7281 1.27666 10.2199C0.788952 10.0891 0.514656 9.75362 0.409552 9.26641C0.0720223 7.72378 -0.0573165 6.14246 0.0250246 4.56511C0.0766914 3.6008 0.209399 2.64263 0.421729 1.70082C0.530678 1.21748 0.821637 0.912009 1.30326 0.782795C2.59054 0.43457 3.90542 0.199214 5.23313 0.0793718C6.59535 -0.03901 7.96578 -0.0241176 9.32514 0.123839C10.5129 0.250959 11.688 0.477301 12.8384 0.800518C13.3784 0.951965 13.6046 1.35991 13.693 1.89061C13.9446 3.39961 14.059 4.91956 13.9696 6.44434C13.9132 7.40587 13.7773 8.36385 13.6491 9.3199C13.5851 9.79648 13.2768 10.0932 12.816 10.2167C10.9294 10.7273 8.98513 10.9906 7.03143 11ZM5.49557 5.49989C5.49557 5.96691 5.49557 6.43392 5.49557 6.90094C5.49557 7.19094 5.49332 7.48095 5.49557 7.77095C5.49749 7.92401 5.55068 8.0558 5.6936 8.13249C5.8269 8.2037 5.93841 8.14345 6.04961 8.06966C7.16986 7.33025 8.29001 6.5916 9.41006 5.8537C9.70935 5.65617 9.70967 5.33588 9.41198 5.13964C9.02745 4.88669 8.64292 4.63632 8.2584 4.38466C7.5169 3.89895 6.77476 3.41336 6.03198 2.92787C5.82017 2.78963 5.61541 2.84119 5.53466 3.05676C5.50777 3.13793 5.49519 3.22321 5.49749 3.30874C5.49461 4.03988 5.49589 4.7694 5.49557 5.49989Z" fill="white"/>
</svg>

<svg width="14" height="11" fill="none" xmlns="http://www.w3.org/2000/svg"><path d="M7.031 11a22.446 22.446 0 0 1-5.754-.78c-.488-.13-.762-.466-.867-.954a17.683 17.683 0 0 1-.385-4.7A17.21 17.21 0 0 1 .422 1.7c.109-.484.4-.789.881-.918a22.95 22.95 0 0 1 3.93-.704A21.412 21.412 0 0 1 12.838.8c.54.152.767.56.855 1.09.252 1.51.366 3.03.277 4.554-.057.962-.193 1.92-.32 2.876-.065.476-.373.773-.834.897-1.887.51-3.83.774-5.785.783zM5.496 5.5v1.4c0 .29-.003.58 0 .87.001.154.055.286.198.362.133.072.244.011.356-.062 1.12-.74 2.24-1.478 3.36-2.216.3-.198.3-.518.002-.714l-1.154-.755c-.741-.486-1.483-.972-2.226-1.457-.212-.138-.417-.087-.497.129a.738.738 0 0 0-.038.252c-.002.73-.001 1.46-.001 2.19z" fill="#fff"/></svg>
